files/facesketch/hair/hair1.svg

<svg width="180" height="200" xmlns="http://www.w3.org/2000/svg"><path d="M101.5 34v-8m6 9v-8m6 9v-8m6 10v-8m6 10v-8m6 10.5V35m6 11.5V39m-89 3.5V35m-6 11.5V39m47.253-6v-8m5.747 8v-8m-17 9v-8m-6 9v-8m-6 9v-8m-6 10v-8m-6 10v-8m30 1v-8" stroke="#18181A" stroke-width="2" fill="none" fill-rule="evenodd" stroke-linecap="round" stroke-linejoin="round"/></svg>

<svg width="180" height="200" xmlns="http://www.w3.org/2000/svg"><g stroke="#18181A" stroke-width="2" fill="none" fill-rule="evenodd" stroke-linecap="round" stroke-linejoin="round"><path d="M101.5 34v-8M107.5 35v-8M113.5 36v-8M119.5 38v-8M125.5 40v-8M131.5 42.5V35M137.5 46.5V39M48.5 42.5V35M42.5 46.5V39M89.753 33v-8M95.5 33v-8M78.5 34v-8M72.5 35v-8M66.5 36v-8M60.5 38v-8M54.5 40v-8M84.5 33v-8"/></g></svg>
